X: 1
T: the Stone Frigate
C: Pipe Major Donald M Carrigan 1983
N: The composer's name is often spelled "Kerrigan"
R: reel
Z: 2012 John Chambers <jc:trillian.mit.edu>
S: handwritten MS labelled "Arr. by B.McOwen & G.Aucoin & M.Lepley, March 2013"
D: Alasdair Gillies CD
M: C|
L: 1/8
K: D
B |\
"D"AddA d2Ad | "A7"AddG "G"B2dB | "D"AddA "Bm"dABd | "Em"feef "A7"e2dB |\
"D"AddA d2Ad | "A7"AddG "G"B2dB | "D"AddA "Em"Beed | "A7"caac "D"d3 :|
g |\
"D"faaf a2fa | "A7"aAAG "G"B2dB | "D"AddA "Bm"dABd | "Em"feef "A7"e2fg |\
"D"faaf a2fa | "A7"aAAG "G"B2dB | "D"AddA "Em"Beed | "A7"caac "D"d3 |]
g |\
"D"faaf a2fa | "A7"aAdG "G"B2dB | "D"AddA "Bm"dABd | "Em"feef "A7"e2dB |\
"D"AddA d2Ad | "A7"AddG "G"B2dB | "D"AddA "Em"Beed | "A7"cAac "D"d3 |]
